X:1
T:Sonaat no.16 en C-Dur, KV.545
T:Sonate No.16 en C-Dur, KV.545 
T:I: Allegro
T:Wolfgang Amadeus Mozart. (1750 - 1765)
C:Wolfgang Amadeus Mozart. (1750 - 1765)
%%score { 1 2 }
L:1/8
Q:1/4=120
M:4/4
K:C
V:1 treble nm="Piano"
V:2 treble nm="Piano"
V:1
 (!1!c4 !3!e2 g2) | !1!B3 (c/d/ c4) | (!3!a4 .g2 c'2) | !3!g2 Tfe/!3!f/ e4 | %4
 (!1!AB/c/ !1!d/e/f/g/ a/g/f/e/ d/!4!c/B/A/) | (!1!GA/B/ !1!c/d/e/f/ g/f/e/d/ c/!4!B/A/G/) | %6
 (FG/A/ !1!B/c/d/e/ f/e/d/c/ !4!B/A/G/F/) | (EF/G/ !1!A/B/c/d/ e/d/c/B/ A/!4!G/F/E/) | %8
 (!1!DE/F/ !1!G/A/B/^c/ d/!1!A/B/c/ !1!d/e/f/!1!g/ | %9
 !2!a/b/c'/b/ a/!1!g/!3!f/e/ f/g/f/e/ d/c/!1!B/!2!A/) | (.B.g.e.c .d.g.e.c) | d2 [Bdg]2 G2 z2 | %12
 z8 | (d'b g3) (a/b/ ag) | T!3!g>^f !3!f6 | (d'b g3) (a/b/ ag) | T!3!g>^f !3!f6 | %17
 d'2 z/ (d'/b/g/ e2) z/ (e/g/e/ | c'2) z/ (c'/a/^f/ d2) z/ (d/f/d/ | %19
 b2) z/ (b/g/e/ c2) z/ (c/e/c/ | a2) z/ (a/^f/c/ B2) z/ (g/d/B/ | A4){/B} c2{/^d} e2 | %22
{/^g} a3 (b/4a/4g/4a/4) (c'ac'a | bg d'4) (c'/b/a/g/ | Ta8{ga)} | %25
 g2 (!2!g/d/g/!4!b/ !5!d'/b/g/!5!b/ c'/!3!a/!2!^f/!4!a/ | g2) (G/D/G/B/ d/B/G/B/ c/A/_G/A/) | %27
 G2 [db]2 [Bg]2 z2 :: z2 (g/d/g/_b/ d'/b/g/b/ c'/a/_g/a/ | g2) (G/D/G/_B/ d/B/G/B/ c/A/_G/A/ | %30
 G2) z2 z/ (!1!g/!3!_b/a/ g/!3!=f/e/d/ | !2!^c2) z2 z/ (!3!^c'/e'/d'/ c'/_b/a/!3!g/) | %32
 (f2 d/A/d/f/ a/f/d/f/ g/e/^c/e/ | d2) (D/A,/D/F/ A/F/D/F/ G/E/^C/E/) | %34
 z/ (!1!D/E/F/ !1!G/A/B/^c/ d2) z2 | z/ (!1!B/c/d/ !1!e/^f/^g/a/ b2) z2 | %36
 z/ (!1!a/!5!e'/d'/ c'/b/a/!3!g/ f2) z2 | z/ (g/d'/c'/ b/a/g/f/ e2) z2 | %38
 z/ (f/c'/b/ a/g/f/e/ d2) z2 | z/ (e/b/a/ ^g/f/e/d/ c2) z2 | %40
 z/ (!3!_B/d/c/ B/A/G/!3!F/ !2!E/!1!F/G/A/ B/!1!c/d/e/) | (f4 a2 c'2) | e3 (f/g/ f4) | %43
 (d'4 .c'2 f'2) | c'2 (T_bc'/b/ a4) | (de/f/ g/a/_b/c'/ d'/c'/b/a/ g/f/e/d/) | %46
 (cd/e/ f/g/a/_b/ c'/b/a/g/ f/e/d/c/) | (_Bc/d/ e/f/g/a/ _b/a/g/f/ e/d/c/B/) | %48
 (A_B/c/ d/e/f/g/ a/g/f/e/ d/c/B/A/) | a2 z2 z2 ([ca]2 | [cg]2) z2 z2 ([cg]2 | %51
 [cf]2) z2 z2 ([c=g]2 | [ce]2) z2 z2 ([ce]2 | d/)(D/E/F/ G/A/B/^c/ d/A/B/c/ d/e/f/g/ | %54
 a/b/=c'/b/ a/g/f/e/ f/g/a/g/ f/e/d/c/) | .B.g.e.c .d.g.e.c | d2 [Bdg]2 G2 z2 | z8 | %58
 (ge c3) (d/e/ dc) | Tc>B B6 | (ge c3) (d/e/ dc) | Tc>B B6 | g2 z/ (g/e/c/ A2) z/ (A/c/A/ | %63
 f2) z/ (f/d/B/ G2) z/ (g/b/g/ | e'2) z/ (e'/c'/a/ f2) z/ (f/a/f/ | %65
 d'2) z/ (d'/b/f/ e2) z/ (c'/g/e/ | d4){/^c} d2{/c} d2 | a4{/^g} a2{/g} a2 | %68
 !1!=ga/b/ !1!c'/d'/e'/d'/ c'/!4!b/a/g/ f/!3!e/d/c/ | Td8{cd} | (c2 c/G/c/e/ g/e/c/e/ f/d/B/d/) | %71
 (c2 C/G,/C/E/ G/E/C/E/ F/D/B,/D/) | C2 [Ge]2 [Ec]2 z2 :| %73
V:2
!p! (CGEG) (CGEG) | (DGFG) (CGEG) | (CAFA) (CGEG) | (B,GFG) (CGEG) | F2 z4[K:bass] ([F,C]2 | %5
 [E,C]2) z4 ([E,C]2 | [D,C]2) z4 [D,B,]2 | [C,C]2 z4 [C,E,]2 | [F,A,]2 z2 z4 | F,3 G, A,3 ^F, | %10
 (G,,/B,,/D,/G,/) (G,,/C,/E,/G,/) (G,,/B,,/D,/G,/) (G,,/C,/E,/G,/) | G,,2 G,2 G,,2 z2 | %12
 ^C/D/C/D/ C/D/C/D/ =C/D/C/D/ C/D/C/D/ | B,/D/B,/D/ B,/D/B,/D/ B,/D/B,/D/ B,/D/B,/D/ | %14
 C/D/B,/D/ A,/D/B,/D/ C/D/B,/D/ C/D/A,/D/ | B,/D/B,/D/ B,/D/B,/D/ B,/D/B,/D/ B,/D/B,/D/ | %16
 C/D/B,/D/ A,/D/B,/D/ C/D/B,/D/ C/D/A,/D/ | z/ (B,/D/G/ B2) z/ (C/E/G/ c2) | %18
 z/ (A,/C/^F/ A2) z/ (B,/D/G/ B2) | z/ (G,/B,/D/ G2) z/ (A,/C/E/ A2) | %20
 z/ (^F,/A,/D/ ^F2) z/ (G,/B,/D/ G2) |[K:treble] [CE][CE][CE][CE] [CE][CE][CE][CE] | %22
 [CE][CE][CE][CE] [CE][CE][CE][CE] | (D/B/G/B/ D/B/G/B/ D/B/G/B/ D/B/G/B/) | %24
 (D/c/^F/c/ D/c/F/c/ D/c/F/c/ D/c/F/c/) | [GB]2 z2 z2 ([DAc]2 | [GB]2) z2 z2[K:bass] ([D,A,C]2 | %27
 [G,B,]2) [G,,G,]2 [G,,G,]2 z2 :: [G,,G,]2 z2 z2[K:treble] ([DAc]2 | %29
 [G_B]2) z2 z2[K:bass] [D,A,C]2 | z/ (!5!G,,/A,,/_B,,/ C,/D,/!3!E,/^F,/ G,2) z2 | %31
 z/ (!5!A,,/B,,/^C,/ D,/E,/!3!^F,/^G,/ A,2) z2 | [D,,D,]2 z2 z2[K:treble] [A,EG]2 | %33
 [DF]2 z2 z2[K:bass] [A,,E,G,]2 | [D,F,]2 z2 z/ (!3!D/F/E/ D/!1!C/B,/A,/) | %35
 ^G,2 z2 z/ (!3!G,/B,/A,/ G,/!1!=F,/E,/D,/ | C,2) z2[K:treble] z/ (!5!D/!1!A/G/ F/!1!E/D/C/) | %37
 B,2 z2 z/ (C/G/F/ E/D/C/B,/ | A,2) z2[K:bass] z/ (B,/F/E/ D/C/B,/A,/) | %39
 ^G,2 z2 z/ (A,/C/B,/ A,/=G,/F,/E,/ | !4!D,4 [C,G,_B,]4) |[K:treble] (FcAc) (FcAc) | %42
 (Gc_Bc) (FcAc) | (Fd_Bd) (FcAc) | (Ec_Bc) (FcAc | _B2) z4[K:bass] ([_B,F]2 | [A,F]2) z4 ([A,F]2 | %47
 [G,F]2) z4 [G,E]2 | [F,F]2 z4 [F,A,]2 | (!5!F,G,/A,/ _B,/C/!3!D/E/ F/E/D/!1!C/ B,/!1!A,/G,/F,/) | %50
 (!4!E,F,/G,/ A,/!4!B,/C/D/ E/D/C/B,/ !1!A,/G,/F,/E,/) | %51
 (D,E,/F,/ G,/A,/!3!B,/C/ D/C/B,/A,/ !1!G,/F,/E,/D,/) | %52
 (C,D,/E,/ F,/G,/!3!A,/B,/ C/B,/A,/!1!G,/ F,/E,/D,/!5!C,/) | ([F,A,]8 | F,3) (G, A,3) ^F, | %55
 (G,,/B,,/D,/G,/) (G,,/C,/E,/G,/) (G,,/B,,/D,/G,/) (G,,/C,/E,/G,/) | G,,2 G,2 G,,2 z2 | %57
[K:treble] ^F/G/F/G/ F/G/F/G/ =F/G/F/G/ F/G/F/G/ | E/G/E/G/ E/G/E/G/ E/G/E/G/ E/G/E/G/ | %59
 F/G/E/G/ D/G/E/G/ F/G/E/G/ F/G/D/G/ | E/G/E/G/ E/G/E/G/ E/G/E/G/ E/G/E/G/ | %61
 F/G/E/G/ D/G/E/G/ F/G/E/G/ F/G/D/G/ | z/[K:bass] (E,/G,/C/ E2) z/ (F,/A,/C/ F2) | %63
 z/ (D,/F,/B,/ D2) z/ (E,/G,/C/ E2) | z/[K:treble] (C/E/G/ c2) z/ (D/F/A/ d2) | %65
 z/ (B,/D/G/ B2) z/ (C/E/G/ c2) | z [FA][FA][FA] [FA][FA][FA]([FA] | %67
[K:bass] z) [^F,C_E][F,CE][F,CE] [F,CE][F,CE][F,CE][F,CE] | %68
 (G,/=E/C/E/ G,/E/C/E/ G,/E/C/E/ G,/E/C/E/ | G,/F/B,/F/ G,/F/B,/F/ G,/F/B,/F/ G,/F/B,/F/) | %70
 [CE]2 z2 z2 ([G,DF]2 | [CE]2) z2 z2 [G,,D,F,]2 | [C,E,]2 C2 [C,,C,]2 z2 :| %73

